packages/icons/svgs/solid/c-remove-solid.svg

<svg width="12" height="12" viewBox="0 0 12 12" xmlns="http://www.w3.org/2000/svg"><path d="M6 0C2.7 0 0 2.7 0 6s2.7 6 6 6 6-2.7 6-6-2.7-6-6-6Zm2.625 7.575-1.05 1.05L6 7.05 4.425 8.625l-1.05-1.05L4.95 6 3.375 4.425l1.05-1.05L6 4.95l1.575-1.575 1.05 1.05L7.05 6l1.575 1.575Z"/></svg>

<svg width="12" height="12" viewBox="0 0 12 12" fill="none" xmlns="http://www.w3.org/2000/svg">
<path d="M6 0C2.7 0 0 2.7 0 6C0 9.3 2.7 12 6 12C9.3 12 12 9.3 12 6C12 2.7 9.3 0 6 0ZM8.625 7.575L7.575 8.625L6 7.05L4.425 8.625L3.375 7.575L4.95 6L3.375 4.425L4.425 3.375L6 4.95L7.575 3.375L8.625 4.425L7.05 6L8.625 7.575Z" fill="black"/>
</svg>
